.local/share/icons/Gruvbox-Plus-Dark/panel/24/goldendict-tray.svg

<svg xmlns="http://www.w3.org/2000/svg" width="24" height="24" version="1.1">
 <defs>
  <style id="current-color-scheme" type="text/css">
   .ColorScheme-Text { color:#ebdbb2; } .ColorScheme-Highlight { color:#458588; }
  </style>
 </defs>
 <path style="fill:currentColor" class="ColorScheme-Text" d="M 4.800781,5 C 4.357581,5 4,5.3114187 4,5.6992188 V 19.300781 C 4,19.68858 4.357581,20 4.800781,20 H 19.199219 C 19.642419,20 20,19.68858 20,19.300781 V 5.6992188 C 20,5.3114188 19.642419,5 19.199219,5 H 19 13 v 4 h 1 1 v 1 h -2 v 1 h 2 v 1 h -2 v -1 h -2 -1 v 1 H 9 6 V 11 H 8 9 V 8 H 8 6 V 7 H 9 V 5 Z M 14,7 h 4 V 8 H 16 15 14 Z M 6,9 h 2 v 1 H 6 Z m 10,0 h 2 v 1 h -1 -1 z m 1,2 h 1 v 1 H 17 Z M 6,13 h 3 v 1 H 6 Z m 7,0 h 2 1 v 1 h -2 -1 z m 4,0 h 1 v 1 H 17 Z M 6,15 h 3 v 1 H 8 7 6 Z m 4,0 h 1 v 1 h -1 z m 3,0 h 1 v 1 h -1 z m 3,0 h 1 1 v 1 H 17 16 Z M 6,17 h 1 v 1 H 6 Z m 2,0 h 1 1 1 v 1 H 8 Z m 5,0 h 1 2 1 v 1 h -4 z"/>
 <path style="opacity:0.3;fill:currentColor" class="ColorScheme-Text" d="M 9.9998,4.5 V 10 H 11 11.9998 V 4.5 C 11.9998,4.5 11.91867,4 11,4 10.081326,4 9.9998,4.5 9.9998,4.5 Z"/>
</svg>

<svg width="24" height="24" version="1.1" xmlns="http://www.w3.org/2000/svg">
  <defs>
    <style id="current-color-scheme" type="text/css">.ColorScheme-Text { color:#ebdbb2; } .ColorScheme-Highlight { color:#458588; } .ColorScheme-NeutralText { color:#fe8019; } .ColorScheme-PositiveText { color:#689d6a; } .ColorScheme-NegativeText { color:#fb4934; }</style>
  </defs>
  <path class="ColorScheme-Text" d="m4.801 5c-0.4432 0-0.8008 0.3114-0.8008 0.6992v13.6c0 0.3878 0.3576 0.6992 0.8008 0.6992h14.4c0.4432 0 0.8008-0.3114 0.8008-0.6992v-13.6c0-0.3878-0.3576-0.6992-0.8008-0.6992h-6.199v4h2v1h-2v1h2v1h-2v-1h-3v1h-4v-1h3v-3h-3v-1h3v-2zm9.199 2h4v1h-4zm-8 2h2v1h-2zm10 0h2v1h-2zm1 2h1v1h-1zm-11 2h3v1h-3zm7 0h3v1h-3zm4 0h1v1h-1zm-11 2h3v1h-3zm4 0h1v1h-1zm3 0h1v1h-1zm3 0h2v1h-2zm-10 2h1v1h-1zm2 0h3v1h-3zm5 0h4v1h-4z" fill="currentColor"/>
  <path class="ColorScheme-Text" d="m10 4.5v5.5h2v-5.5s-0.08113-0.5-0.9998-0.5c-0.9187 0-1 0.5-1 0.5z" fill="currentColor" opacity=".3"/>
</svg>
